automatic/svg/Sony - Playstation 3 CECH-4000.svg

<?xml version="1.0" encoding="UTF-8" standalone="no"?>
<svg
   xmlns:dc="http://purl.org/dc/elements/1.1/"
   xmlns:cc="http://creativecommons.org/ns#"
   xmlns:rdf="http://www.w3.org/1999/02/22-rdf-syntax-ns#"
   xmlns:svg="http://www.w3.org/2000/svg"
   xmlns="http://www.w3.org/2000/svg"
   viewBox="0 0 320 320"
   height="320"
   width="320"
   xml:space="preserve"
   version="1.1"
   id="svg2"><metadata
     id="metadata8"><rdf:RDF><cc:Work
         rdf:about=""><dc:format>image/svg+xml</dc:format><dc:type
           rdf:resource="http://purl.org/dc/dcmitype/StillImage" /></cc:Work></rdf:RDF></metadata><defs
     id="defs6"><clipPath
       id="clipPath16"
       clipPathUnits="userSpaceOnUse"><path
         id="path18"
         d="M 0,256 256,256 256,0 0,0 0,256 Z" /></clipPath><clipPath
       id="clipPath24"
       clipPathUnits="userSpaceOnUse"><path
         id="path26"
         d="M 8,222 248,222 248,34 8,34 8,222 Z" /></clipPath></defs><g
     transform="matrix(1.25,0,0,-1.25,0,320)"
     id="g10"><g
       id="g12"><g
         clip-path="url(#clipPath16)"
         id="g14"><g
           id="g20"><g
             id="g22" /><g
             id="g28"><g
               style="opacity:0.89999402"
               id="g30"
               clip-path="url(#clipPath24)"><path
                 id="path32"
                 style="fill:#f2f2f2;fill-opacity:1;fill-rule:nonzero;stroke:none"
                 d="m 244,188 -232,0 0,30 232,0 0,-30 z m 0,-8 -120,0 0,4 120,0 0,-4 z m 0,-142 -232,0 0,26 232,0 0,4 -120,0 0,4 120,0 0,4 -120,0 0,4 120,0 0,4 -120,0 0,4 120,0 0,4 -120,0 0,4 120,0 0,4 -120,0 0,4 120,0 0,4 -120,0 0,4 120,0 0,4 -120,0 0,4 120,0 0,4 -120,0 0,4 120,0 0,4 -120,0 0,4 120,0 0,4 -120,0 0,4 120,0 0,4 -120,0 0,4 120,0 0,4 -120,0 0,4 120,0 0,4 -120,0 0,4 120,0 0,4 -120,0 0,4 120,0 0,-138 z m -232,34 108,0 0,-4 -108,0 0,4 z m 0,8 108,0 0,-4 -108,0 0,4 z m 0,8 108,0 0,-4 -108,0 0,4 z m 0,8 108,0 0,-4 -108,0 0,4 z m 0,8 108,0 0,-4 -108,0 0,4 z m 0,8 108,0 0,-4 -108,0 0,4 z m 0,8 108,0 0,-4 -108,0 0,4 z m 0,8 108,0 0,-4 -108,0 0,4 z m 0,8 108,0 0,-4 -108,0 0,4 z m 0,8 108,0 0,-4 -108,0 0,4 z m 0,8 108,0 0,-4 -108,0 0,4 z m 0,8 108,0 0,-4 -108,0 0,4 z m 0,8 108,0 0,-4 -108,0 0,4 z m 0,8 108,0 0,-4 -108,0 0,4 z m 0,8 108,0 0,-4 -108,0 0,4 z m 232,38 -232,0 -4,0 0,-4 0,-180 0,-4 4,0 232,0 4,0 0,4 0,180 0,4 -4,0 z" /></g></g></g></g></g></g></svg>

<?xml version="1.0" encoding="UTF-8" standalone="no"?>
<svg
   xmlns:dc="http://purl.org/dc/elements/1.1/"
   xmlns:cc="http://creativecommons.org/ns#"
   xmlns:rdf="http://www.w3.org/1999/02/22-rdf-syntax-ns#"
   xmlns:svg="http://www.w3.org/2000/svg"
   xmlns="http://www.w3.org/2000/svg"
   viewBox="0 0 320 250.66665"
   height="250.66666"
   width="320"
   xml:space="preserve"
   id="svg2"
   version="1.1"><metadata
     id="metadata8"><rdf:RDF><cc:Work
         rdf:about=""><dc:format>image/svg+xml</dc:format><dc:type
           rdf:resource="http://purl.org/dc/dcmitype/StillImage" /></cc:Work></rdf:RDF></metadata><defs
     id="defs6"><clipPath
       id="clipPath18"
       clipPathUnits="userSpaceOnUse"><path
         id="path16"
         d="M 0,256 H 256 V 0 H 0 Z" /></clipPath><clipPath
       id="clipPath26"
       clipPathUnits="userSpaceOnUse"><path
         id="path24"
         d="M 8,222 H 248 V 34 H 8 Z" /></clipPath></defs><g
     transform="matrix(1.3333333,0,0,-1.3333333,-10.666666,295.99999)"
     id="g10"><g
       id="g12"><g
         clip-path="url(#clipPath18)"
         id="g14"><g
           id="g20"><g
             id="g22" /><g
             id="g32"><g
               style="opacity:0.89999402"
               id="g30"
               clip-path="url(#clipPath26)"><path
                 id="path28"
                 style="fill:#f2f2f2;fill-opacity:1;fill-rule:nonzero;stroke:none"
                 d="M 244,188 H 12 v 30 h 232 z m 0,-8 H 124 v 4 H 244 Z M 244,38 H 12 v 26 h 232 v 4 H 124 v 4 h 120 v 4 H 124 v 4 h 120 v 4 H 124 v 4 h 120 v 4 H 124 v 4 h 120 v 4 H 124 v 4 h 120 v 4 H 124 v 4 h 120 v 4 H 124 v 4 h 120 v 4 H 124 v 4 h 120 v 4 H 124 v 4 h 120 v 4 H 124 v 4 h 120 v 4 H 124 v 4 h 120 v 4 H 124 v 4 h 120 v 4 H 124 v 4 h 120 v 4 H 124 v 4 H 244 Z M 12,72 H 120 V 68 H 12 Z m 0,8 H 120 V 76 H 12 Z m 0,8 H 120 V 84 H 12 Z m 0,8 H 120 V 92 H 12 Z m 0,8 h 108 v -4 H 12 Z m 0,8 h 108 v -4 H 12 Z m 0,8 h 108 v -4 H 12 Z m 0,8 h 108 v -4 H 12 Z m 0,8 h 108 v -4 H 12 Z m 0,8 h 108 v -4 H 12 Z m 0,8 h 108 v -4 H 12 Z m 0,8 h 108 v -4 H 12 Z m 0,8 h 108 v -4 H 12 Z m 0,8 h 108 v -4 H 12 Z m 0,8 h 108 v -4 H 12 Z m 232,38 H 12 8 V 218 38 34 h 4 232 4 v 4 180 4 z" /></g></g></g></g></g></g></svg>
